X:6264
T:Star of Munster
O:england
M:4/4
L:1/8
R:Reel
K:ADor
ed |: c2Ac BAGB | AGEF GED2 | EA A/2A/2A ABcd | eaaf gfed |
c2Ac BAGB | AGEF GEDF | EA A/2A/2A ABce |1 dBGB A2ed :|2 dBGB A2eg|:
~a3b ageg | agbg agef | g2gf gd d/2d/2d | gabg aged |
eaab ageg | agbg agef | g2ge ~a3ag | b2ba gfed :|


